X: 637
T: Xiaoguafu shangfen
%%abc-version 2.0
%%abcx-abcm2ps-target-version 5.9.1 (29 Sep 2008)
%%abc-creator hum2abc beta
%%abcx-conversion-date 2013/10/02 07:52:30
%%abc-edited-by Helmut Schaffrath
%%humdrum-veritas 3095882673
%%humdrum-veritas-data 1412981142
%%continueall 1
%%barnumbers 0
L: 1/8
M: 2/4
K: D
d3f [I:setbarnb 1]| 
e f B A | 
B A/ B/ A F | 
A4 | 
d3f | 
e f B A | 
d B A F | 
A4 | 
A Bd2 | 
ef2e | 
d3e | 
B D A F | 
E F A B | 
d2F E | 
A F E B, | 
D4 | 
d> B d3/ B/ | 
A B A F | 
E F A B | 
d2F E | 
A F E B, | 
D4 |]  



